app/img/product/ic_integration.svg

<svg width="29" height="28" viewBox="0 0 29 28" fill="none" xmlns="http://www.w3.org/2000/svg">
    <path d="M4.52245 17.4053C4.43164 16.8907 4.3711 16.3156 4.3711 15.7707C4.3711 11.5026 7.06515 7.83994 10.8489 6.41723V4.08643C5.82407 5.59994 2.1311 10.2616 2.1311 15.7707C2.1311 16.7394 2.25218 17.6778 2.46408 18.5859L4.52245 17.4053Z"
          fill="#022AF0"/>
    <path d="M24.3499 15.7707C24.3499 16.3156 24.2894 16.8605 24.1986 17.4053L26.2267 18.5859C26.4385 17.708 26.5596 16.7394 26.5596 15.7707C26.5596 10.2616 22.8969 5.59994 17.8721 4.08643V6.41723C21.6559 7.83994 24.3499 11.5026 24.3499 15.7707Z"
          fill="#022AF0"/>
    <path d="M14.3604 25.76C11.9388 25.76 9.7291 24.9124 8.0037 23.4897L6.00586 24.64C8.18532 26.7287 11.1215 28 14.3604 28C17.5994 28 20.5356 26.7287 22.715 24.6703L20.7172 23.4897C18.9918 24.9124 16.7821 25.76 14.3604 25.76Z"
          fill="#022AF0"/>
    <path d="M10.4858 9.41405C10.3648 9.65621 10.395 9.92864 10.5464 10.1103L13.8458 14.4086C13.9669 14.56 14.1788 14.6811 14.3907 14.6811C14.6026 14.6811 14.7842 14.5903 14.9356 14.4086L18.235 10.1103C18.3258 9.98918 18.3864 9.83783 18.3864 9.68648C18.3864 9.59567 18.3561 9.47458 18.3258 9.38377C18.2048 9.14161 17.9929 9.02053 17.7204 9.02053H16.1766V0.544864C16.1766 0.242162 15.9345 0 15.6318 0H13.1496C12.8469 0 12.6048 0.242162 12.6048 0.544864V9.0508H11.1215C10.8188 9.02053 10.5767 9.17188 10.4858 9.41405Z"
          fill="#7CEA57"/>
    <path d="M10.1529 22.0065C10.274 22.2184 10.5161 22.3697 10.7886 22.3395C11.0307 22.3092 11.2729 22.1578 11.3637 21.9157L13.4221 16.9211C13.5129 16.7395 13.4826 16.4973 13.3918 16.3157C13.301 16.1341 13.0891 16.013 12.9075 15.9827L7.54966 15.2865C7.39831 15.2562 7.24696 15.2865 7.12588 15.3773C7.03507 15.4378 6.97453 15.4984 6.91398 15.5892C6.76263 15.8011 6.76263 16.0735 6.88371 16.2854L7.64047 17.587L0.284803 21.8249C0.0123705 21.9762 -0.0784402 22.3092 0.072911 22.5816L1.31399 24.7308C1.46534 25.0032 1.79831 25.0941 2.07075 24.9427L9.42642 20.7049L10.1529 22.0065Z"
          fill="#7CEA57"/>
    <path d="M28.4663 21.855L21.1106 17.6172L21.8674 16.3155C21.9885 16.1036 21.9885 15.8312 21.8371 15.6193C21.6857 15.4074 21.4436 15.2863 21.2014 15.3166L15.8436 16.0128C15.6317 16.0431 15.4501 16.1642 15.3593 16.3458C15.2685 16.5274 15.2382 16.7393 15.329 16.9512L17.3874 21.9458C17.4479 22.0971 17.5387 22.188 17.6598 22.2788C17.7506 22.3393 17.8414 22.3696 17.9625 22.3696C18.2047 22.3998 18.4468 22.2485 18.5982 22.0366L19.3549 20.735L26.7106 24.9728C26.983 25.1242 27.316 25.0334 27.4674 24.7609L28.7084 22.6117C28.8295 22.3393 28.7387 22.0063 28.4663 21.855Z"
          fill="#7CEA57"/>
</svg>

<svg width="29" height="28" fill="none" xmlns="http://www.w3.org/2000/svg"><path d="M4.522 17.405a9.653 9.653 0 0 1-.15-1.634c0-4.268 2.693-7.931 6.477-9.354v-2.33C5.824 5.6 2.13 10.261 2.13 15.77c0 .968.121 1.907.333 2.815l2.058-1.18ZM24.35 15.77c0 .546-.06 1.09-.151 1.635l2.028 1.18c.212-.877.333-1.846.333-2.814 0-5.51-3.663-10.171-8.688-11.685v2.331c3.784 1.423 6.478 5.086 6.478 9.354ZM14.36 25.76a9.94 9.94 0 0 1-6.356-2.27l-1.998 1.15A12.02 12.02 0 0 0 14.36 28c3.24 0 6.176-1.271 8.355-3.33l-1.998-1.18a9.94 9.94 0 0 1-6.357 2.27Z" fill="#022AF0"/><path d="M10.486 9.414a.64.64 0 0 0 .06.696l3.3 4.299a.736.736 0 0 0 .545.272c.212 0 .393-.09.545-.272l3.299-4.299a.724.724 0 0 0 .151-.424c0-.09-.03-.211-.06-.302a.635.635 0 0 0-.606-.363h-1.543V.545A.543.543 0 0 0 15.632 0H13.15a.543.543 0 0 0-.545.545V9.05H11.12c-.302-.03-.544.12-.635.363ZM10.153 22.006a.656.656 0 0 0 .636.334c.242-.03.484-.182.575-.424l2.058-4.995c.09-.181.06-.424-.03-.605-.091-.182-.303-.303-.484-.333l-5.358-.697a.525.525 0 0 0-.424.091.707.707 0 0 0-.212.212.646.646 0 0 0-.03.696l.756 1.302-7.355 4.238a.55.55 0 0 0-.212.757l1.241 2.149a.55.55 0 0 0 .757.212l7.355-4.238.727 1.302ZM28.466 21.855l-7.355-4.238.756-1.302a.646.646 0 0 0-.03-.696.69.69 0 0 0-.636-.302l-5.357.696a.632.632 0 0 0-.485.333.704.704 0 0 0-.03.605l2.058 4.995a.74.74 0 0 0 .273.333c.09.06.181.09.302.09.243.03.485-.12.636-.332l.757-1.302 7.356 4.238a.55.55 0 0 0 .756-.212l1.241-2.15a.588.588 0 0 0-.242-.756Z" fill="#7CEA57"/></svg>
